public/formular-icons/greece/lower-beta.svg

<svg style="vertical-align:-.439ex" xmlns="http://www.w3.org/2000/svg" width="1.281ex" height="2.034ex" viewBox="0 -705 566 899" xmlns:xlink="http://www.w3.org/1999/xlink"><defs><path id="a" d="M29-194q-6 6-6 8 0 3 79 320t84 331q22 68 57 119t66 74q56 47 120 47h2q62 0 102-38t40-97q0-105-104-174l13-13q51-51 51-131 0-113-85-187T257-10q-30 0-54 8t-38 19-22 23-12 19-5 6L62-188q-2-6-20-6H29Zm324 625q39 0 74-12l5 3 7 7 10 10q7 7 12 14t11 18 12 24 9 29 8 36q2 9 2 33 0 18-1 23-15 51-76 51-42 0-79-24t-61-61-39-68-23-59q-5-16-38-147t-34-140q-1-5-1-21 0-48 22-79 31-42 87-42 42 0 89 25t76 86q16 34 24 77t8 65q0 58-35 93-42-14-75-14h-10q-79 0-79 31 0 7 3 14 14 28 92 28Z"/></defs><g stroke="currentColor" fill="currentColor" stroke-width="0"><use data-c="1D6FD" xlink:href="#a" transform="scale(1 -1)"/></g></svg>

<svg style="vertical-align: -0.439ex" xmlns="http://www.w3.org/2000/svg" width="1.281ex" height="2.034ex" role="img" focusable="false" viewBox="0 -705 566 899" xmlns:xlink="http://www.w3.org/1999/xlink"><defs><path id="MJX-86-TEX-I-1D6FD" d="M29 -194Q23 -188 23 -186Q23 -183 102 134T186 465Q208 533 243 584T309 658Q365 705 429 705H431Q493 705 533 667T573 570Q573 465 469 396L482 383Q533 332 533 252Q533 139 448 65T257 -10Q227 -10 203 -2T165 17T143 40T131 59T126 65L62 -188Q60 -194 42 -194H29ZM353 431Q392 431 427 419L432 422Q436 426 439 429T449 439T461 453T472 471T484 495T493 524T501 560Q503 569 503 593Q503 611 502 616Q487 667 426 667Q384 667 347 643T286 582T247 514T224 455Q219 439 186 308T152 168Q151 163 151 147Q151 99 173 68Q204 26 260 26Q302 26 349 51T425 137Q441 171 449 214T457 279Q457 337 422 372Q380 358 347 358H337Q258 358 258 389Q258 396 261 403Q275 431 353 431Z"></path></defs><g stroke="currentColor" fill="currentColor" stroke-width="0" transform="scale(1,-1)"><g data-mml-node="math"><g data-mml-node="mi"><use data-c="1D6FD" xlink:href="#MJX-86-TEX-I-1D6FD"></use></g></g></g></svg>
